barni/images/vk.svg

<svg width="16" height="10" viewBox="0 0 16 10" fill="none" xmlns="http://www.w3.org/2000/svg">
<path d="M15.3722 0.439318L12.7758 0.439318C12.6698 0.439317 12.5658 0.470965 12.4749 0.530893C12.3839 0.590821 12.3094 0.676788 12.2593 0.779644C12.2593 0.779644 11.2238 2.88032 10.8912 3.58788C9.99633 5.49127 9.41686 4.89373 9.41686 4.01035L9.41686 0.964434C9.41686 0.709908 9.32506 0.465806 9.16167 0.285829C8.99828 0.105852 8.77667 0.0047417 8.5456 0.0047417L6.59346 0.00474174C6.32762 -0.0170308 6.06113 0.0364201 5.81931 0.160018C5.57749 0.283616 5.36837 0.473257 5.21182 0.710928C5.21182 0.710928 6.20308 0.534386 6.20308 2.0056C6.20308 2.37042 6.22014 3.41991 6.23569 4.30016C6.23862 4.42988 6.20535 4.55746 6.14036 4.66569C6.07537 4.77391 5.98181 4.85757 5.87229 4.90536C5.76277 4.95315 5.64258 4.96277 5.52794 4.93293C5.41329 4.90309 5.30973 4.83522 5.23121 4.73849C4.43218 3.51436 3.7703 2.1884 3.25998 0.789413C3.21616 0.684761 3.146 0.596152 3.05783 0.534098C2.96966 0.472045 2.86718 0.439151 2.76255 0.439318C2.19948 0.439318 1.07272 0.439318 0.40357 0.439318C0.338683 0.438832 0.274658 0.455705 0.216997 0.488487C0.159335 0.521269 0.109761 0.56898 0.0725324 0.627522C0.0353042 0.686064 0.0115351 0.753687 0.00326721 0.82458C-0.00500067 0.895473 0.00247981 0.967517 0.025066 1.03452C0.741367 3.19877 3.82696 10 7.34886 10L8.83123 10C8.98655 10 9.1355 9.93203 9.24533 9.81106C9.35516 9.69008 9.41686 9.52601 9.41686 9.35492L9.41686 8.36896C9.41686 8.24528 9.44971 8.12429 9.51136 8.02092C9.57302 7.91755 9.66079 7.8363 9.76385 7.7872C9.86691 7.73809 9.98076 7.72327 10.0914 7.74456C10.202 7.76585 10.3045 7.82232 10.3864 7.90701L12.1606 9.74327C12.32 9.90818 12.5304 9.99999 12.7491 10L15.079 10C16.2027 10 16.2027 9.14107 15.5901 8.47643C15.1589 8.00868 13.603 6.20217 13.603 6.20217C13.4697 6.05013 13.3902 5.8506 13.3789 5.63964C13.3676 5.42868 13.4251 5.22022 13.5411 5.05191C14.044 4.3229 14.8666 3.12956 15.2155 2.61834C15.6924 1.9196 16.5554 0.439318 15.3722 0.439318Z" fill="white"/>
</svg>

<svg width="16" height="10" fill="none" xmlns="http://www.w3.org/2000/svg"><path d="M15.372.44h-2.596a.546.546 0 0 0-.301.09.623.623 0 0 0-.216.25s-1.035 2.1-1.368 2.808c-.895 1.903-1.474 1.306-1.474.422V.964c0-.254-.092-.498-.255-.678a.833.833 0 0 0-.616-.281H6.593A1.439 1.439 0 0 0 5.82.16c-.242.124-.45.313-.607.55 0 0 .991-.176.991 1.296 0 .364.017 1.414.033 2.294a.682.682 0 0 1-.096.366.59.59 0 0 1-.268.24.526.526 0 0 1-.344.027.568.568 0 0 1-.297-.195A19.365 19.365 0 0 1 3.26.79a.589.589 0 0 0-.202-.255.51.51 0 0 0-.295-.095H.403a.371.371 0 0 0-.186.05.416.416 0 0 0-.144.139.469.469 0 0 0-.048.407C.741 3.199 3.827 10 7.35 10H8.83a.56.56 0 0 0 .414-.189.68.68 0 0 0 .172-.456v-.986c0-.124.033-.245.094-.348a.593.593 0 0 1 .253-.234.527.527 0 0 1 .327-.042c.111.02.214.077.295.162l1.775 1.836c.159.165.37.257.588.257h2.33c1.124 0 1.124-.859.511-1.524a174.88 174.88 0 0 1-1.987-2.274.93.93 0 0 1-.224-.562.95.95 0 0 1 .162-.588c.503-.73 1.326-1.922 1.675-2.434.476-.698 1.34-2.179.156-2.179Z" fill="#fff"/></svg>
